X: 31444
T: Paddy Taylor's
R: reel
M: 4/4
K: Gmajor
FEDF ABAF|G~E3 dEcE|FEDF ABAF|GEcE EDD2:|
K:D
Addc ~d3A|BeeA Beeg|fdec dBAB|cAGE FDD2|
Addc ~d3A|(3Bcd ef ~g2fg|af (3gfe dBAB|cAGE FDD2||
F3G A2dG|(3GGG dG (3GGG dG|FEFG ABdB|cAGE FDD2:|

